app/dist/common/images/tff-pharmaceuticals.svg

<svg height="18" viewBox="0 0 18 18" width="18" xmlns="http://www.w3.org/2000/svg"><path d="m0 0h18v18h-18z" fill="#f0f3fa"/><path d="m7.52 6h-3.52v.62h1.44v3.38h.64v-3.38h1.44zm2.81.62v-.62h-2.33v4h.67v-1.85h1.33v-.61h-1.33v-.92zm3 0v-.62h-2.33v4h.67v-1.85h1.33v-.61h-1.33v-.92z" fill="#393459"/><path d="m2.36 12.47s.7-.65 1.86-1.06c0 0 1.32-.48 2.72-.57 0 0 1.16-.1 2.36.24l.75.2s1.21.34 2.02.26l.4-.05s1.26-.2 2-.77c0 0 .64-.43 1.13-1.01l.19-.23s.1-.12.14-.13l.04-.02s.02 0 .03.02v.04s-.9 1.56-2.09 2.23c0 0-1.26.81-2.5 1.04 0 0-1.64.3-2.76-.28 0 0-.79-.37-1.3-.54 0 0-.77-.3-1.45-.3 0 0-1.28-.02-2.12.4 0 0-.57.26-1.18.75l-.15.15s-.16.18-.32.16c0 0-.11-.02-.13-.13 0 0-.02-.1.12-.2l.24-.2z" fill="#4f78a6"/></svg>

<!-- by TradingView --><svg xmlns="http://www.w3.org/2000/svg" width="18" height="18" viewBox="0 0 18 18"><path fill="#F0F3FA" d="M0 0h18v18H0z"/><path d="M7.52 6H4v.62h1.44V10h.64V6.62h1.44V6ZM10.33 6.62V6H8v4h.67V8.15H10v-.61H8.67v-.92h1.66ZM13.33 6.62V6H11v4h.67V8.15H13v-.61h-1.33v-.92h1.66Z" fill="#393459"/><path d="M2.36 12.47s.7-.65 1.86-1.06c0 0 1.32-.48 2.72-.57 0 0 1.16-.1 2.36.24l.75.2s1.21.34 2.02.26l.4-.05s1.26-.2 2-.77c0 0 .64-.43 1.13-1.01l.19-.23s.1-.12.14-.13l.04-.02s.02 0 .03.02v.04s-.9 1.56-2.09 2.23c0 0-1.26.81-2.5 1.04 0 0-1.64.3-2.76-.28 0 0-.79-.37-1.3-.54 0 0-.77-.3-1.45-.3 0 0-1.28-.02-2.12.4 0 0-.57.26-1.18.75l-.15.15s-.16.18-.32.16c0 0-.11-.02-.13-.13 0 0-.02-.1.12-.2l.24-.2Z" fill="#4F78A6"/></svg>
